X:1
T:Henley, 11.10.11.10
T:Henley, 11.10.11.10
T:Lowell Mason, 1854
T:Public Domain Courtesy of the Cyber Hymnal™
C:Lowell Mason, 1854
Z:Public Domain
Z:Courtesy of the Cyber Hymnal™
%%score ( 1 2 ) ( 3 4 )
L:1/8
M:4/4
K:F
V:1 treble 
V:2 treble 
V:3 bass 
V:4 bass 
V:1
 [Fc]4 [FA]2 [FA]2 | [FA]4 [EG]4 | [CF]2 [DF]2 [EG]2 [EG]2 | [FA]4 [CF]4 | [Fc]4 [FA]2 [FA]2 | %5
 [FA]4 [CF]4 | [CG]2 [CF]2 [CG]2 [CA]2 | [CF]8 | [EG]4 [EG]2 [FA]2 | [EB]4 G4 | %10
 [FA]2 [FA]2 [FA]2 [FB]2 | [Fc]4 [FA]4 | [Fc]4 [FA]2 [FA]2 | [FA]4 [CF]4 | %14
 [CG]2 [CF]2 [CG]2 [CA]2 | [CF]8 |] %16
V:2
 x8 | x8 | x8 | x8 | x8 | x8 | x8 | x8 | x8 | x4 G4 | x8 | x8 | x8 | x8 | x8 | x8 |] %16
V:3
 [F,A,]4 [F,C]2 [F,C]2 | [F,C]4 (C2 B,2) | [A,,C]2 [A,,C]2 [C,C]2 [C,C]2 | [F,C]4 [F,A,]4 | %4
 [F,A,]4 [F,C]2 [F,C]2 | [F,C]4 [F,A,]4 | [C,B,]2 [C,A,]2 [C,B,]2 [C,C]2 | [F,A,]8 | %8
 [C,C]4 [B,C]2 [A,C]2 | [G,C]4 [E,C]4 | [F,C]2 [F,C]2 [F,C]2 [G,C]2 | [A,C]4 [F,C]4 | %12
 [F,A,]4 [F,C]2 [F,C]2 | [F,C]4 [F,A,]4 | [C,B,]2 [C,A,]2 [C,B,]2 [C,C]2 | [F,A,]8 |] %16
V:4
 x8 | x4 C,4 | x8 | x8 | x8 | x8 | x8 | x8 | x8 | x8 | x8 | x8 | x8 | x8 | x8 | x8 |] %16

